X:1
T:Sonate da camera a violino, e violone, o cembalo
T:Sonate da camera a violino, e violone, o cembalo
T:Sonata XII - Aria - Variatione (le seguenti variazioni se piace)
T:Carbonelli, Giovanni Stefano (1690-1772)
C:Carbonelli, Giovanni Stefano (1690-1772)
%%score ( 1 2 )
L:1/8
M:4/4
K:D
V:1 treble nm="Mandoline" snm="Mdn."
V:2 treble 
V:1
 F2 | B4 d4 | c6 c2 | d2 Bc d2 e2 | f6 f2 | g2 ab a2 g2 | g2 f2 z2 f2 | e2 fg f2 e2 | d2 B2 z2 f2 | %9
 ^g2 c2 b2 ag | a2 f2 c2 ^e2 | f6 :: fg | a2 f2 ^d2 a2 | g2 fg e2 ef | g2 e2 c2 g2 | f2 d2 z2 f2 | %17
 e2 d2 c2 B2 | ^A6 f2 | f2 B4 ^g2 | ^g2 c4 ^a2 | ^a2 e4 b2 | b2 B4 d2 | c2 B2 F2 ^A2 | B6 f2 | %25
 f2 B4 ^g2 | ^g2 c4 ^a2 | ^a2 e4 b2 | b2 B4 d2 | c2 B2 F2 ^A2 | B6 :: F2 | (B3 c d3) B | %33
 c2 (ag f2 e2) | (d2 c2 B2) E2 | F4 z2 f2 | (ge)(ge) A(gfe) | fedc d2 f2 | d2 cB FcEc | %39
 D(cB^A) B2 d2 | (c^e^gb) (egbd') | (c'2 ba) T^g3 f | f6 :: f^g | (a2 ^ga) ^d2 a2 |{/b} a2 g4 ef | %46
 g2 fg c2 g2 |{/a} g2 f4 f2 | (Te2 de) (Tc2 Bc) |{/B} ^A6 f2 | (fd)(fB) (df)(ba) | ^gegc egc'b | %52
 ^afac fa d'2 |({c'} b^a b2) z2 d2 | c2 B2 F2 ^A2 | B2 B,2 z2 f2 | f6 b2 |{a} ^g6 c'2 | %58
{b} ^a6 d'2 |{c'} b4 z2 d2 | c2 B2 F2 ^A2 | B2 B,4 :: F2 | (Bcde) (fdcB) | (F^G^AB) (c=GFE) | %65
 (DF^G^A) (BdcB) |{/B} T^A6 f2 | (geac') (e'bag) | (faba d'ad'f) | (ed'c'b c'^ac'e) | %70
 (dc'b^a b2) ^e2 | [C^G^eb]6{/d'} c'2 |{/b} a2{/^g} f2 (cBA^G) | F6 :: fg | (agfe ^dcBA) | %76
 GF E4 ef | (gfed cBAG) | FE D4 f2 | feed dccB | ^A6 f2 | fdcB fdcB | ^gdcB gdcB | ^aedc aedc | %84
 bedc fdcB | gdcB F2 ^A2 | B2 B,4 f2 | fdcB fdcB | ^gdcB gdcB | ^aedc aedc | bedc fdcB | %91
 gdcB F2 ^A2 | B2 B,4 :: F2 | (5:4:5(BFB,FB) (5:4:5(B!/!.T^ABcd) | %95
 (5:4:5(cF^A,Fc) (5:4:5(c!/!.TBcde) | (5:4:5(dFB,Fd) (de Te>!/!f) | (5:4:5(f^ACAf) z2 f2 | %98
 (5:4:5(gBEBg) (Tg2 fg) | (5:4:5(fADAf) (f2 Ted) | (5:4:5(eGCGe) (e2 Tdc) | %101
 (5:4:5(dFB,Fd) (Td2 cd) | c3 ^d (5:4:5(^ef^gab) | (a2 ^gf) (agf^e) | f6 :: a2 | %106
 (5:4:5acFca (5:4:5abaTag | (5:4:5gBEBg (5:4:5gB[G,E]Bg | (5:4:5gcEcg (5:4:5gc[G,E]cg | %109
 (5:4:5fADAf z2 f2 | eBG{B^d}=d cEG,{Ec}B |{/B} ^A6 f2 | (6:4:6fBDBfb (6:4:6fBDBfb | %113
 (6:4:6(^gdEdgb) (6:4:6(gdEdgb) | (6:4:6(^aeFeac') (6:4:6(aeFeac') | (bdGB,) z2 d2 | c2 B2 F2 ^A2 | %117
 B6 f2 | (6:4:6(fBDBfb) (6:4:6(fBDBfb) | (6:4:6(^gdEdgb) (6:4:6(gdEdgb) | %120
 (6:4:6(^aeFeac') (6:4:6(aeFeac') | (bdGB,) z2 d2 | c2 B2 F2 ^A2 | B6 :: [FB]2 | %125
 [FB]2 B,2 B,2 [Fd]2 | c6 [Fc]2 | [Fd]2 B,2 B,2 [GBe]2 |{/G} [Fc^a]4 z2 [Bf]2 | %129
 [Bg]2 [EB]2 [eg]2 [A,E]2 | [Af]2 D2 z2 [df]2 | [df]2 [ce]2 z2 [ce]2 | [ce]2 [Bd]2 z2 [Bd]2 | %133
 [Bc]6 [Ac]^G | A2 F2 C2 ^E2 | F6 :: f^g | a2 [ca]2 [^da]2 [Ba]2 | e4 E2 ef | %139
 g2 [Bg]2 [cg]2 [Ag]2 | d4 D2 f2 | f2 e2 c2 B2 |{/B} [C^A]6 z2 | z (dcB) z (dcB) | %144
 z (dcB) z (dcB) | z (edc) z (edc) | z (c'b^a bgfe | dcB^A BDCA) | B,6 | z (dcB) z (dcB) | %150
 z (dcB) z (dcB) | z (edc) z (edc) | z (c'b^a bgfe | dcB^A BDCA) | B,6 :: f2 | (bfBf b2 d'2) | %157
 (d'2 c'3) f'e'f' | d'2 (g'f' e'd'c'b) |{/b} ^a4 z2 f'2 | g(fga) g(e'd'e') | (f4 f)(f'e'd') | %162
 e'(f'd'e') c'(e'd'c') | (d'4 d')(c'd'e') | (c'2 ^g'2) (^e'2 c'2) |{/b} a4 T^g3 f | f6 :: a2 | %168
 (a^d)(fB) (ad)(fB) | (be)(gB) eGBE | (gc)(eA) (gc)(eA) | (ad)(fA) dFAD | (BG)(dB) (ge)(gB) | %173
{/B} ^A6 z2 | z2 B2 z2 ^G2 | z2 c2 z2 ^A2 | z2 e2 z2 ^a2 | z2 b2 z2 d2 | (c2 B2) F2 ^A2 | %179
 BFdB fd b2 | z2 B2 z2 ^G2 | z2 c2 z2 ^A2 | z2 e2 z2 ^a2 | z2 b2 z2 d2 | (c2 B2) F2 ^A2 | B6 :: %186
 F2 | [B,FB]4 [B,Fd]4 | [^A,Fc]4 [A,Fe]4 | [B,Fd]4 [GBe]4 | [Fc^a]4 [DBf]4 | [EBg]4 [A,Ecg]4 | %192
 [DAf]4 [G,DBg]4 | [^Gce]4 [^A,Fc]4 | [B,Fd]4 [DBf]4 | [^Ec^g]4 [Ecb]4 | [Fca]4 [C^Ec]4 | %197
 [CFA]4 [CFA]4 :: [CFA]4 [B,^DA]4 | [G,EBe]4 [G,EBe]4 | [G,EBe]4 [CEAe]4 | [DAf]4 [DAf]4 | %202
 [G,Edg]4 [G,Ec]4 | [Fc^a]4 [Fca]4 | [DBf]4 [DBf]4 | [EB^g]4 [EBg]4 | [Fc^a]4 [Fca]4 | %207
 [DBb]4 [B,FB]4 | [CEB]4 [CF^A]4 | [B,FB]4 z2 f2 | f6 b2 |{/a} ^g6 c'2 |{/b} ^a6 d'2 |{/c'} b6 d2 | %214
 c2 B2 F2 ^A2 | B2 B,6 :| %216
V:2
 x2 | x8 | x8 | x8 | x8 | x8 | x8 | x8 | x8 | x8 | x8 | x6 :: x2 | x8 | x8 | x8 | x8 | x8 | x8 | %19
 x8 | x8 | x8 | x8 | x8 | x8 | x8 | x8 | x8 | x8 | x8 | x6 :: x2 | x8 | x8 | x8 | x8 | x8 | x6 d2 | %38
 e2 x6 | x8 | x8 | x8 | x6 :: x2 | x8 | x8 | x8 | x8 | x8 | x8 | x8 | x8 | x8 | x8 | x8 | x8 | x8 | %57
 x8 | x8 | x8 | x8 | x6 :: x2 | x8 | x8 | x8 | x8 | x8 | x8 | x8 | x8 | x8 | x8 | x6 :: x2 | x8 | %76
 x8 | x8 | x8 | x8 | x8 | x8 | x8 | x8 | x8 | x8 | x8 | x8 | x8 | x8 | x8 | x8 | x6 :: x2 | x8 | %95
 x8 | x8 | x8 | x8 | x8 | x8 | x8 | x8 | x8 | x6 :: x2 | x8 | x8 | x8 | x8 | x8 | x8 | x8 | x8 | %114
 x8 | x8 | x8 | x8 | x8 | x8 | x8 | x8 | x8 | x6 :: x2 | x8 | F4 x4 | x8 | x8 | x8 | x8 | x8 | x8 | %133
 x8 | x8 | x6 :: x2 | x8 | a2 g3 x3 | x8 | g2 x2 f3 x | B4 G4 | x8 | x8 | x8 | x8 | x8 | x8 | x6 | %149
 x8 | x8 | x8 | x8 | x8 | x6 :: x2 | x8 | x8 | x8 | x8 | x8 | x8 | x8 | x8 | x8 | x8 | x6 :: x2 | %168
 x8 | x8 | x8 | x8 | x8 | x8 | x8 | x8 | x8 | x8 | x8 | x8 | x8 | x8 | x8 | x8 | x8 | x6 :: x2 | %187
 x8 | x8 | x8 | x8 | x8 | x8 | x8 | x8 | x8 | x8 | x8 :: x8 | x8 | x8 | x8 | x8 | x8 | x8 | x8 | %206
 x8 | x8 | x8 | x8 | x8 | x8 | x8 | x8 | x8 | x8 :| %216

